outputs/icons/action/price_sharp.svg

<svg xmlns="http://www.w3.org/2000/svg" width="1200" height="1200" fill="none"><g clip-path="url(#a)"><path fill="#000" d="M600 100c-276 0-500 224-500 500s224 500 500 500 500-224 500-500-224-500-500-500m44 788v62h-87.5v-64.5c-37-9-119.5-38.5-151-148L488 704c3 11 29 104.5 120 104.5 46.5 0 99-24 99-80.5 0-48-35-73-114-101.5C538 607 425.5 575 425.5 461c0-5 .5-120 131-148v-63H644v62c92 16 125.5 89.5 133 111.5L698 457c-5.5-17.5-29.5-67-95-67-35 0-90.5 18.5-90.5 69.5 0 47.5 43 65.5 132 95C764.5 596 795 657 795 727c0 131.5-125 156.5-151 161"/></g><defs><clipPath id="a"><path fill="#fff" d="M0 0h1200v1200H0z"/></clipPath></defs></svg>

<svg width="1200" height="1200" viewBox="0 0 1200 1200" fill="none" xmlns="http://www.w3.org/2000/svg"><g clip-path="url(#clip0_117_783)"><path d="M600 100C324 100 100 324 100 600C100 876 324 1100 600 1100C876 1100 1100 876 1100 600C1100 324 876 100 600 100ZM644 888V950H556.5V885.5C519.5 876.5 437 847 405.5 737.5L488 704C491 715 517 808.5 608 808.5C654.5 808.5 707 784.5 707 728C707 680 672 655 593 626.5C538 607 425.5 575 425.5 461C425.5 456 426 341 556.5 313V250H644V312C736 328 769.5 401.5 777 423.5L698 457C692.5 439.5 668.5 390 603 390C568 390 512.5 408.5 512.5 459.5C512.5 507 555.5 525 644.5 554.5C764.5 596 795 657 795 727C795 858.5 670 883.5 644 888Z" fill="#1D1E23"/></g><defs><clipPath id="clip0_117_783"><path width="24" fill="white" d="M0 0H1200V1200H0V0z"/></clipPath></defs></svg>
